src/lib/icons/thumb-up-filled.svg

<!--{
  "category": "Action"
}-->
<svg xmlns="http://www.w3.org/2000/svg" width="15" height="16" viewBox="0 0 15 16" fill="none">
  <path d="M14.8618 9.2648L13.1746 14.1702C12.7949 15.281 11.6905 16.0017 10.5322 16H6.68018C5.98949 15.998 5.38532 15.707 4.78864 15.4196C4.60207 15.3298 4.09766 15.1087 3.9942 15.0607C4.00323 12.1243 3.99432 9.18778 3.99742 6.25137C4.09148 6.22278 4.21044 6.19164 4.30196 6.16107C4.70363 6.02692 5.63642 5.89309 5.70506 5.74416L7.15211 2.82087C7.38087 2.35751 7.44591 1.8379 7.50992 1.32651C7.52505 1.20564 7.54013 1.08523 7.55729 0.966126C7.60202 0.670344 7.8095 0.398935 8.04944 0.231876C8.31068 0.0499887 8.60394 0 8.91463 0C10.3927 0.186319 10.4547 2.81487 10.1126 3.79181C9.84954 4.23893 9.45419 4.828 9.67442 5.54589L9.67366 5.57734C9.73168 5.57874 9.79033 5.57995 9.84954 5.58104C9.93611 5.58263 10.0239 5.58398 10.1126 5.58534C10.2961 5.58815 10.6709 5.58007 10.8606 5.58534C12.2522 5.62394 13.7547 5.79104 14.564 7.00441C15.0071 7.66873 15.1187 8.5161 14.8618 9.2648Z" fill="#7A859E"/>
  <path d="M2.99219 4.98827L2.875 4.98794H1C0.447715 4.98794 0 5.43614 0 5.98903V14.9989C0 15.5518 0.447715 16 1 16H2.99645L2.99219 4.98827Z" fill="#7A859E"/>
</svg>

<!--{
  "category": "Action"
}-->
<svg xmlns="http://www.w3.org/2000/svg" width="15" height="16" fill="none"><path fill="#7A859E" d="m14.862 9.265-1.687 4.905c-.38 1.111-1.485 1.832-2.643 1.83H6.68c-.69-.002-1.295-.293-1.891-.58-.187-.09-.691-.311-.795-.36.01-2.936 0-5.872.003-8.809.094-.028.213-.06.305-.09.402-.134 1.334-.268 1.403-.417l1.447-2.923c.229-.463.294-.983.358-1.494.015-.121.03-.242.047-.36.045-.297.252-.568.492-.735C8.311.05 8.604 0 8.915 0c1.478.186 1.54 2.815 1.198 3.792-.263.447-.659 1.036-.439 1.754v.031a30.796 30.796 0 0 0 .439.008c.183.003.558-.005.748 0 1.391.039 2.894.206 3.703 1.42a2.59 2.59 0 0 1 .298 2.26ZM2.992 4.988H1a1 1 0 0 0-1 1.001v9.01A1 1 0 0 0 1 16h1.996L2.992 4.988Z"/></svg>
